packages/astro-components-stencil/src/icons/directions-boat.svg

<svg width="24" height="24" viewBox="0 0 24 24" fill="none" xmlns="http://www.w3.org/2000/svg">
<path fill-rule="evenodd" clip-rule="evenodd" d="M3.95001 19H4.00001C5.42001 19 6.70001 18.3 7.66001 17.36C7.85001 17.18 8.16001 17.18 8.35001 17.36C9.30001 18.3 10.58 19 12 19C13.42 19 14.7 18.3 15.66 17.36C15.85 17.17 16.15 17.17 16.35 17.36C17.3 18.3 18.58 19 20 19H20.05L21.94 12.32C22.02 12.06 22 11.78 21.88 11.54C21.76 11.3 21.54 11.12 21.28 11.04L20 10.62V6C20 4.9 19.1 4 18 4H15V2C15 1.45 14.55 1 14 1H10C9.45001 1 9.00001 1.45 9.00001 2V4H6.00001C4.90001 4 4.00001 4.9 4.00001 6V10.62L2.71001 11.04C2.45001 11.12 2.23001 11.3 2.11001 11.54C1.99001 11.78 1.96001 12.06 2.05001 12.32L3.95001 19ZM20 21C18.71 21 17.42 20.59 16.26 19.86C16.1 19.76 15.89 19.76 15.73 19.86C13.42 21.33 10.57 21.33 8.26001 19.86C8.10001 19.76 7.89001 19.76 7.73001 19.86C6.58001 20.59 5.29001 21 4.00001 21H3.00001C2.45001 21 2.00001 21.45 2.00001 22C2.00001 22.55 2.45001 23 3.00001 23H4.00001C5.38001 23 6.74001 22.65 8.00001 22.01C10.52 23.3 13.48 23.3 16 22.01C17.26 22.66 18.62 23 20 23H21C21.55 23 22 22.55 22 22C22 21.45 21.55 21 21 21H20ZM17 6H7.00001C6.45001 6 6.00001 6.45 6.00001 7V9.97L11.37 8.2C11.78 8.07 12.21 8.07 12.62 8.2L18 9.97V7C18 6.45 17.55 6 17 6Z" fill="black"/>
</svg>

<svg xmlns="http://www.w3.org/2000/svg" viewBox="0 0 24 24"><g xmlns="http://www.w3.org/2000/svg" id="directions-boat" fill-rule="nonzero">
            <path d="M20 21c-1.29 0-2.58-.41-3.74-1.14-.16-.1-.37-.1-.53 0-2.31 1.47-5.16 1.47-7.47 0-.16-.1-.37-.1-.53 0C6.58 20.59 5.29 21 4 21H3c-.55 0-1 .45-1 1s.45 1 1 1h1c1.38 0 2.74-.35 4-.99a8.752 8.752 0 008 0c1.26.65 2.62.99 4 .99h1c.55 0 1-.45 1-1s-.45-1-1-1h-1zM3.95 19H4c1.42 0 2.7-.7 3.66-1.64.19-.18.5-.18.69 0C9.3 18.3 10.58 19 12 19s2.7-.7 3.66-1.64c.19-.19.49-.19.69 0C17.3 18.3 18.58 19 20 19h.05l1.89-6.68c.08-.26.06-.54-.06-.78a.997.997 0 00-.6-.5L20 10.62V6c0-1.1-.9-2-2-2h-3V2c0-.55-.45-1-1-1h-4c-.55 0-1 .45-1 1v2H6c-1.1 0-2 .9-2 2v4.62l-1.29.42a1.007 1.007 0 00-.66 1.28L3.95 19zM7 6h10c.55 0 1 .45 1 1v2.97L12.62 8.2c-.41-.13-.84-.13-1.25 0L6 9.97V7c0-.55.45-1 1-1z"/>
        </g></svg>
